X: 59
T: O'Donnell Abhu
R: march
B: NEFR #59
Z: John Chambers <jc@trillian.mit.edu>
M: 2/4
L: 1/8
K: G
[| "G"G2 Bc | d2 Bd | b2 ge | d2 cB | "Am"A2 A>B | "D7"c2 BA | "G"G2 Bc | "D7"dc BA |
|  "G"G2 Bc | d2 Bd | b2 ge | d2 cB | "Am"A2 a>g | "D7"fd ef | "G"g2 "C"g>a | "G"g3 a |]
[| "G"b2 b>a | ge d2 | g2 g>e | dB GA/B/ | "C"c2 ec | "G"B2 dB | "D7"A2 d>e | dc BA |
|  "G"G2 Bc | d2 Bd | b2 ge | d2 cB | "Am"Aa a>g | "D7"fd ef | "G"g2 "C"g>a | "G"g2 g2 |]
